X: 15
T: Molly Brown's Whim
%%VWML:Button1809-2292a-p8-0
F:http://www.vwml.org/record/Button1809/2292a/p8
B: "Twenty Four Country Dances with Figures for the Year 1809", Button & Whitaker, p.8 #1
F: http://www.vwml.org/browse/browse-collections-dance-tune-books/browse-button1809
Z: 2014 John Chambers <jc:trillian.mit.edu>
M: 6/8
L: 1/8
K: D
% - - - - - - - - - - - - - - - - - - - - - - - - - - - - -
|:\
f2g afd | c2d ecA | Bcd efg | fed cBA |\
f2g afd | c2d ecA | Bcd efg | fge d3 :|
|:\
f2g afd' | bgd' afd' | f2g afd | ced cBA |\
f2g afd' | bgd' afd' | efg fed | cde d3 :|
% - - - - - - - - - - Dance description - - - - - - - - - -
W:
W:Half right & left, back again, down the
W:mid up again, Swing Corners.
W:
T: Merrily Trip it
%R: reel
B: "Twenty Four Country Dances with Figures for the Year 1809", Button & Whitaker, p.8 #2
F: http://www.vwml.org/browse/browse-collections-dance-tune-books/browse-button1809
Z: 2014 John Chambers <jc:trillian.mit.edu>
M: 2/4
L: 1/16
K: D
% - - - - - - - - - - - - - - - - - - - - - - - - - - - - -
|:\
(fg)(ef) (d2A2) | (d2A2)(d2A2) | (d2ef) (g2f2) | ({f}edef) (egfe) |
(fg)(ef) (d2A2) | (d2A2)(d2A2) | (d2ef) (g2f2) | ({f}edef) d2z2 H:|
(ABcd) (efge) | (afed) (afed) | (cdef) (efga) | (fg)(ef) d2z2 |
(ABcd) (efge) | (afed) (afed) | (B^def) (gabg) | (fgfe) d2"_D.C."z2 |]
% - - - - - - - - - - Dance description - - - - - - - - - -
W:
W:Cast off 1 Cu: up again, down the mid up
W:again, Allemande.
W:
